Obsidian-SemiLight/actions/16s/character-set.svg

<svg viewBox="0 0 16 16" xmlns="http://www.w3.org/2000/svg"><path d="m2 2v7 5h1v-5h5v2h6v-7h-5v-2h-3-3zm1 1h5v5h-5zm6 2h4v5h-4z" fill="#4d4d4d"/></svg>

<svg xmlns="http://www.w3.org/2000/svg" viewBox="0 0 16 16">
  <defs id="defs3051">
    <style type="text/css" id="current-color-scheme">
      .ColorScheme-Text {
        color:#4d4d4d;
      }
      </style>
  </defs>
 <path style="fill:currentColor;fill-opacity:1;stroke:none" 
     d="M 2 2 L 2 9 L 2 14 L 3 14 L 3 9 L 8 9 L 8 11 L 14 11 L 14 4 L 9 4 L 9 2 L 6 2 L 3 2 L 2 2 z M 3 3 L 8 3 L 8 8 L 3 8 L 3 3 z M 9 5 L 13 5 L 13 10 L 9 10 L 9 5 z "
     class="ColorScheme-Text"
     />
</svg>
